packages/components/icons/assets/StarFill.svg

<svg viewBox="0 0 24 24" xmlns="http://www.w3.org/2000/svg" data-title="StarFill" fill="currentColor" stroke="none">
  <path d="M11.0437 2.24959C10.7942 2.41599 10.5447 2.66558 10.3784 2.99837L8.29938 7.57422L3.55925 8.2398C3.22661 8.2398 2.97713 8.4062 2.64449 8.57259C2.39501 8.82218 2.14553 9.07177 2.06237 9.40456C1.97921 9.82055 1.97921 10.1533 2.06237 10.4861C2.14553 10.8189 2.31185 11.1517 2.56133 11.4013L6.05405 14.8956L5.22245 19.8874C5.13929 20.2202 5.22245 20.553 5.30561 20.8858C5.38877 21.2186 5.63825 21.4682 5.88773 21.6346C6.13721 21.801 6.46985 21.9674 6.8025 21.9674C7.13514 21.9674 7.46778 21.8842 7.71726 21.801L12.0416 19.4714L16.3659 21.801C16.6154 21.9674 16.948 22.0506 17.2807 21.9674C17.6133 21.9674 17.9459 21.801 18.1954 21.6346C18.4449 21.4682 18.6944 21.1354 18.7775 20.8858C18.8607 20.553 18.9439 20.2202 18.8607 19.8874L18.0291 14.8956L21.4387 11.3181C21.6881 11.0685 21.8545 10.8189 21.9376 10.4861C22.0208 10.1533 22.0208 9.82055 21.9376 9.48776C21.8545 9.15497 21.6881 8.90538 21.4387 8.65579C21.1892 8.40619 20.8565 8.323 20.6071 8.2398L15.8669 7.49102L13.7048 2.99837C13.5385 2.66558 13.3721 2.41599 13.0395 2.24959C12.79 2.0832 12.5405 2 12.2911 2H11.9584C11.5426 2.0832 11.2931 2.16639 11.0437 2.24959Z"/>
</svg>

<svg viewBox="0 0 24 24" xmlns="http://www.w3.org/2000/svg" data-title="StarFill" fill="currentColor" stroke="none">
  <path d="m11.04,2.25c-.25.17-.5.42-.67.75l-2.08,4.58-4.74.67c-.33,0-.58.17-.91.33-.25.25-.5.5-.58.83-.08.42-.08.75,0,1.08.08.33.25.67.5.92l3.49,3.49-.83,4.99c-.08.33,0,.67.08,1,.08.33.33.58.58.75.25.17.58.33.91.33s.67-.08.91-.17l4.32-2.33,4.32,2.33c.25.17.58.25.91.17.33,0,.67-.17.91-.33.25-.17.5-.5.58-.75.08-.33.17-.67.08-1l-.83-4.99,3.41-3.58c.25-.25.42-.5.5-.83.08-.33.08-.67,0-1-.08-.33-.25-.58-.5-.83-.25-.25-.58-.33-.83-.42l-4.74-.75-2.16-4.49c-.17-.33-.33-.58-.67-.75-.25-.17-.5-.25-.75-.25h-.33c-.42.08-.67.17-.91.25Z"/>
</svg>
